X:1
T:Title
%%score 1 { ( 2 3 ) | ( 4 5 ) }
L:1/8
Q:1/4=94
M:4/4
K:A
V:1 treble nm="Choir Aahs"
V:2 bass nm="Grand Piano"
V:3 bass 
V:4 bass 
V:5 bass 
V:1
 E3 E ^DE F>A | A2 G2 z2 G>A | B2 E2 G2 d2 | c6 Ac | e3 c BAGA |[M:9/8] B2 F- F3- FG>F | %6
w: J.~Howard~Entwisle * * * * *||||||
[M:4/4] E2 E2 c3 B |[M:3/4] A6 |[M:1/4] z2 |[M:4/4] z8 | z8 | z8 |[M:3/4] z6 |[M:1/4] z2 | %14
w: ||||||||
[M:4/4] z8 | z8 | z8 |[M:3/4] z6 |] %18
w: ||||
V:2
 z E,CE, z E,CE, | z E,DE, z E,DE, | z EEE z[K:treble] GGG | %3
 z[K:treble] AAA[K:bass] z[K:treble] AAA | z A,[K:treble]=GA,[K:bass] z A,[K:treble]GA, | %5
[M:9/8][K:bass] z A,[K:treble]F A, [A,=CF]2- [A,CF] z z |[M:4/4] [A,CE]2 z2 [G,B,D]2 z2 | %7
[M:3/4][K:bass] [E,A,C]2 D2[K:treble] C2 |[M:1/4] G>A |[M:4/4] z2 G>G [Ge]2 B>c | A6 z2 | %11
 [DF]2 [EF]2 [^DB]2 [Dc]2 |[M:3/4] B6 |[M:1/4] [Ge]>[Gd] |[M:4/4] c3 B dcBA | [FA]4 F2 A>F | %16
 z2 A,c B2 G2 |[M:3/4] A2- [DA-]2 [CA]2 |] %18
V:3
 A,,2 z2 A,,2 z2 | B,,2 z2 E,,2 z2 | E,,2 z2 E,,2[K:treble] z2 | %3
 A,,2[K:treble] z2[K:bass] A,,2[K:treble] z2 | A,,2[K:treble] z2[K:bass] A,,2[K:treble] z2 | %5
[M:9/8][K:bass] .D,6[K:treble] z3 |[M:4/4] x8 |[M:3/4][K:bass] x4[K:treble] x2 |[M:1/4] x2 | %9
[M:4/4] B4 z4 | z2 F>F E2 [CE]>[CE] | x8 |[M:3/4] z2 ^D2 E2 |[M:1/4] x2 |[M:4/4] x8 | x8 | E4 z4 | %17
[M:3/4] [A,C]2 z2 z2 |] %18
V:4
 A,,,2 .A,2 A,,,2 .A,2 | B,,,2 .G,2 z2 .G,2 | z [G,B,D][G,B,D][G,B,D] z [B,DE][B,DE][B,DE] | %3
 z [CE][CE][CE] z [CE][CE][CE] | A,,,2 .C2 A,,,2 .C2 |[M:9/8] z2 D z [^D,,^D,]2- [D,,D,] z z | %6
[M:4/4] [E,,E,]2 z2 [E,,E,]2 z2 |[M:3/4] z2 [F,A,]2 [E,A,]2 |[M:1/4] z2 | %9
[M:4/4] z2 [E,D]>[E,D] [E,B,]2[K:treble] D>E | C2 [A,D]>[A,D][K:bass] [A,C]2 [A,,A,]>[A,,A,] | %11
 [D,A,]2 [C,A,]2 [B,,G,]2 [B,,G,]2 |[M:3/4] [E,G,E]2 [F,A,]2 [G,B,]2 |[M:1/4] [E,B,]>[E,E] | %14
[M:4/4][K:treble] [A,EA]3 [A,DA] [A,FA][A,EA][A,DE][K:bass][A,CE] | [D,D]4 [D,A,D]2[K:treble] F>D | %16
 C4[K:bass] z4 |[M:3/4] z2 F,2 E,2 |] %18
V:5
 x8 | x8 | x8 | A,,,2 z2 A,,,2 z2 | x8 |[M:9/8] .D,,6 z3 |[M:4/4] x8 |[M:3/4] [A,,,A,,]6 | %8
[M:1/4] x2 |[M:4/4] x6[K:treble] x2 | x4[K:bass] x4 | x8 |[M:3/4] x6 |[M:1/4] x2 | %14
[M:4/4][K:treble] x7[K:bass] x | x6[K:treble] x2 | z2[K:bass] E,[E,A,E] [E,G,D]2 [E,B,D]2 | %17
[M:3/4] A,,6 |] %18

